src/img/feature-4.svg

<svg width="63" height="63" viewBox="0 0 63 63" fill="none" xmlns="http://www.w3.org/2000/svg">
<path fill-rule="evenodd" clip-rule="evenodd" d="M62.9508 31.5246C62.9508 48.9064 51.6553 63 31.4754 63C14.0915 63 0 48.9053 0 31.5246C0 14.1407 14.0915 0.0491943 31.4754 0.0491943C48.8582 0.0491943 62.9508 14.1407 62.9508 31.5246Z" fill="#FFDD67"/>
<path fill-rule="evenodd" clip-rule="evenodd" d="M26.0449 20.2805C25.8214 19.8567 25.3251 19.6962 24.9338 19.9154L22.8354 21.1346L23.5363 15.9149C23.5625 15.7219 23.5237 15.5236 23.4334 15.3494L22.7651 14.083C22.656 13.8805 22.4808 13.7263 22.271 13.6571C22.0622 13.5857 21.8408 13.6099 21.654 13.7211L16.47 16.727C16.2854 16.8361 16.1479 17.0155 16.0934 17.239C16.0399 17.4624 16.0713 17.7017 16.1773 17.9073L16.8824 19.2398C17.1079 19.6657 17.6021 19.8263 17.9913 19.6049L19.9502 18.4697L19.2577 23.5907C19.2336 23.7838 19.2682 23.9821 19.3605 24.1583L20.0635 25.4887C20.2544 25.8475 20.6374 26.0217 20.9878 25.9293C21.0518 25.9104 21.1127 25.8884 21.1725 25.8517L26.4603 22.7944C26.6471 22.6821 26.7824 22.4996 26.837 22.2803C26.8947 22.0547 26.8632 21.8197 26.7551 21.6141L26.0522 20.2805" fill="#467591"/>
<path fill-rule="evenodd" clip-rule="evenodd" d="M40.3934 6.41773C40.2749 6.22049 40.0923 6.082 39.8814 6.02849L31.6244 3.95216C31.1879 3.842 30.7599 4.12842 30.6696 4.59321L30.272 6.63596C30.2269 6.85944 30.2699 7.09341 30.3864 7.28541C30.5049 7.4837 30.6896 7.62114 30.9005 7.67465L34.6922 8.62941L28.9521 13.5941C28.8126 13.7148 28.7161 13.8827 28.6793 14.0694L28.2817 16.1122C28.2387 16.3335 28.2817 16.5675 28.4003 16.7658C28.5167 16.9609 28.7014 17.0973 28.9123 17.1508L37.3267 19.2702C37.4431 19.2985 37.5586 19.2985 37.6708 19.2744C37.7631 19.2555 37.8534 19.2188 37.9352 19.1642C38.1157 19.0436 38.2384 18.8526 38.2814 18.627L38.677 16.5885C38.7672 16.1258 38.4839 15.6579 38.0475 15.5477L34.027 14.5373L39.8636 9.48029C40.0031 9.36383 40.0976 9.19177 40.1343 9.00291L40.513 7.07032C40.5571 6.8479 40.5162 6.61393 40.3976 6.41983" fill="#467591"/>
<path fill-rule="evenodd" clip-rule="evenodd" d="M55.5824 21.4693C55.7807 21.3979 55.9412 21.25 56.0315 21.0611L57.2422 18.4791C57.429 18.0836 57.2611 17.6083 56.8593 17.4194L50.7384 14.5279L61.3613 9.25051C61.5208 9.17287 61.6498 9.04173 61.7264 8.8791L62.8763 6.42612C63.0631 6.03058 62.8952 5.5574 62.4955 5.36645L51.393 0.120547C50.9954 -0.0662074 50.5222 0.10376 50.3334 0.499301L49.1163 3.08868C48.9296 3.48632 49.0974 3.9595 49.4972 4.14835L55.3128 6.89615L44.8514 12.0843C44.6919 12.1641 44.5629 12.2952 44.4884 12.4558L43.2755 15.0336C43.1874 15.2245 43.1769 15.4438 43.2493 15.6421C43.2881 15.7523 43.3542 15.853 43.4361 15.9348C43.5001 15.9988 43.5756 16.0513 43.6595 16.0901L54.9708 21.4346C55.1617 21.527 55.381 21.5375 55.5782 21.4682" fill="#467591"/>
<path fill-rule="evenodd" clip-rule="evenodd" d="M50.3281 45.3423C51.1559 46.6255 51.4371 49.1498 49.6535 50.2997C48.2025 51.2324 45.824 50.9816 43.9711 52.1746C42.0963 53.3853 41.3136 55.6463 39.85 56.5885C37.8376 57.8873 35.9439 56.4185 35.1224 55.15C33.643 52.8534 35.8452 48.8025 40.0441 46.0883C44.2408 43.3814 48.8488 43.0467 50.3281 45.3423Z" fill="#664E27"/>
<path fill-rule="evenodd" clip-rule="evenodd" d="M38.5962 33.6083C44.4475 38.0536 53.3791 33.8905 53.7296 26.5504C53.7485 26.1035 53.0182 25.816 52.2282 25.6859C49.7458 30.6297 44.2828 33.1781 38.9015 31.9013C38.4923 32.5916 38.2437 33.3355 38.5962 33.6083Z" fill="#664E27"/>
<path fill-rule="evenodd" clip-rule="evenodd" d="M15.0725 44.5764C20.9238 49.0228 29.8555 44.8597 30.209 37.5196C30.2258 37.0727 29.4956 36.7841 28.7045 36.6551C26.2232 41.5988 20.7601 44.1462 15.3789 42.8704C14.9697 43.5608 14.721 44.3036 15.0725 44.5764" fill="#664E27"/>
</svg>

<svg width="63" height="63" fill="none" xmlns="http://www.w3.org/2000/svg"><path fill-rule="evenodd" clip-rule="evenodd" d="M62.95 31.525C62.95 48.906 51.656 63 31.476 63 14.091 63 0 48.905 0 31.525 0 14.14 14.091.049 31.475.049c17.383 0 31.476 14.092 31.476 31.476z" fill="#FFDD67"/><path fill-rule="evenodd" clip-rule="evenodd" d="M26.045 20.28c-.224-.423-.72-.584-1.111-.365l-2.099 1.22.701-5.22a.956.956 0 0 0-.103-.566l-.668-1.266a.882.882 0 0 0-.494-.426.732.732 0 0 0-.617.064l-5.184 3.006a.812.812 0 0 0-.377.512.972.972 0 0 0 .084.668l.705 1.333c.226.426.72.586 1.11.365l1.958-1.135-.692 5.12a.966.966 0 0 0 .102.568l.704 1.33c.19.36.573.534.924.441a.745.745 0 0 0 .184-.077l5.288-3.058a.829.829 0 0 0 .377-.514.93.93 0 0 0-.082-.666l-.703-1.334M40.393 6.418a.841.841 0 0 0-.512-.39l-8.257-2.076c-.436-.11-.864.176-.954.641l-.398 2.043a.911.911 0 0 0 .114.65.841.841 0 0 0 .515.389l3.791.954-5.74 4.965a.844.844 0 0 0-.273.475l-.397 2.043a.932.932 0 0 0 .118.654.837.837 0 0 0 .512.385l8.415 2.12a.764.764 0 0 0 .608-.107.822.822 0 0 0 .346-.537l.396-2.038c.09-.463-.193-.931-.63-1.041l-4.02-1.01 5.837-5.058a.825.825 0 0 0 .27-.477l.379-1.933a.912.912 0 0 0-.115-.65M55.582 21.47a.8.8 0 0 0 .45-.409l1.21-2.582a.795.795 0 0 0-.383-1.06l-6.12-2.891L61.36 9.25a.784.784 0 0 0 .365-.372l1.15-2.453a.797.797 0 0 0-.38-1.06L51.392.121a.798.798 0 0 0-1.06.378l-1.217 2.59a.796.796 0 0 0 .381 1.06l5.816 2.747-10.462 5.188a.789.789 0 0 0-.363.372l-1.212 2.578a.8.8 0 0 0 .383 1.056l11.312 5.345c.19.092.41.103.607.033" fill="#467591"/><path fill-rule="evenodd" clip-rule="evenodd" d="M50.328 45.342c.828 1.284 1.11 3.808-.675 4.958-1.45.932-3.829.682-5.682 1.875-1.875 1.21-2.657 3.471-4.121 4.414-2.012 1.298-3.906-.17-4.728-1.439-1.479-2.297.723-6.347 4.922-9.062 4.197-2.707 8.805-3.041 10.284-.746zM38.596 33.608c5.852 4.446 14.783.283 15.134-7.058.019-.447-.712-.734-1.502-.864A11.79 11.79 0 0 1 38.901 31.9c-.409.69-.657 1.435-.305 1.707zM15.072 44.576c5.852 4.447 14.784.284 15.137-7.056.017-.447-.713-.736-1.505-.865A11.789 11.789 0 0 1 15.38 42.87c-.41.69-.658 1.434-.306 1.706" fill="#664E27"/></svg>
